packages/icons/src/components/Icon/assets/small-solid/privacy.svg

<svg width="16" height="16" viewBox="0 0 16 16" fill="none" xmlns="http://www.w3.org/2000/svg">
<path fill-rule="evenodd" clip-rule="evenodd" d="M7.41342 1.14269C7.6143 0.952437 7.92888 0.952437 8.12977 1.14269C9.53045 2.4692 11.4204 3.28203 13.5014 3.28203C13.5345 3.28203 13.5676 3.28182 13.6006 3.28141C13.8279 3.27859 14.0309 3.42357 14.1019 3.63957C14.3884 4.51103 14.5432 5.44166 14.5432 6.40741C14.5432 10.5343 11.7206 14.0006 7.90143 14.9836C7.81626 15.0055 7.72693 15.0055 7.64176 14.9836C3.82258 14.0006 1 10.5343 1 6.40741C1 5.44166 1.15479 4.51103 1.44131 3.63957C1.51233 3.42357 1.71525 3.27859 1.94261 3.28141C1.97562 3.28182 2.00868 3.28203 2.04178 3.28203C4.12274 3.28203 6.01273 2.4692 7.41342 1.14269ZM7.77159 9.67157C6.36686 9.67157 5.11421 10.3324 4.29898 11.3643C4.64624 12.4844 6.41395 13.5262 7.77159 13.5262C9.12923 13.5262 10.5497 12.4844 11.2442 11.3643C10.429 10.3324 9.17632 9.67157 7.77159 9.67157ZM7.77159 8.31725C8.99997 8.31725 9.99577 7.30667 9.99577 6.06005C9.99577 4.81344 8.99997 3.80286 7.77159 3.80286C6.54321 3.80286 5.54741 4.81344 5.54741 6.06005C5.54741 7.30667 6.54321 8.31725 7.77159 8.31725Z" fill="black"/>
</svg>

<svg xmlns="http://www.w3.org/2000/svg" width="16" height="16" fill="none" viewBox="0 0 16 16">
    <path fill="#000" fill-rule="evenodd" d="M7.413 1.143a.52.52 0 0 1 .717 0A7.8 7.8 0 0 0 13.6 3.28a.52.52 0 0 1 .502.359 8.86 8.86 0 0 1-6.2 11.344.5.5 0 0 1-.26 0 8.86 8.86 0 0 1-6.2-11.344.52.52 0 0 1 .5-.359l.1.001a7.8 7.8 0 0 0 5.371-2.14m.359 8.529c-1.405 0-2.658.66-3.473 1.692.347 1.12 2.115 2.162 3.473 2.162s2.778-1.042 3.472-2.162A4.42 4.42 0 0 0 7.772 9.67m0-1.355c1.228 0 2.224-1.01 2.224-2.257S9 3.803 7.772 3.803 5.547 4.813 5.547 6.06s.996 2.257 2.225 2.257" clip-rule="evenodd"/>
</svg>
